src/assets/tokens/ANGLE-arbitrum.svg

<svg width="194" height="194" viewBox="0 0 194 194" fill="none" xmlns="http://www.w3.org/2000/svg">
<circle cx="97" cy="97" r="97" fill="#FAF1E7"/>
<path d="M154.547 119.309L97.0596 62.1619L39.5719 119.309L68.3161 147.882L97.06 119.309L125.803 147.882L154.547 119.309Z" fill="white"/>
<path d="M97.0593 119.308L125.803 147.885L131.552 133.734L97.0593 99.4464L97.0593 119.308Z" fill="#FAF1E7" stroke="#1F2333" stroke-width="1.71294" stroke-linejoin="round"/>
<path d="M154.551 119.302L125.804 147.876L131.553 133.734L166.045 99.4464L154.551 119.302Z" fill="#1F2333" stroke="#1F2333" stroke-width="1.71294" stroke-linejoin="round"/>
<path d="M97.0601 119.308L68.316 147.885L62.5674 133.734L97.0601 99.4464L97.0601 119.308Z" fill="#1F2333" stroke="#1F2333" stroke-width="1.71294" stroke-linejoin="round"/>
<path d="M39.5683 119.302L68.3155 147.876L62.5669 133.734L28.0742 99.4464L39.5683 119.302Z" fill="#FAF1E7" stroke="#1F2333" stroke-width="1.71294" stroke-linejoin="round"/>
<path d="M166.045 99.4437L97.0594 30.8677L28.0741 99.4437L62.5671 133.732L97.0598 99.4442L131.552 133.732L166.045 99.4437Z" fill="url(#paint0_linear_5043_60907)" stroke="#1F2333" stroke-width="1.71294" stroke-linejoin="round"/>
<circle cx="97.0291" cy="45.0291" r="36.0291" fill="white"/>
<g clip-path="url(#clip0_5043_60907)">
<path d="M102.893 42.8969L106.68 36.6846L116.885 52.0542L116.89 55.0039L116.857 34.7067C116.833 34.2104 116.56 33.7564 116.125 33.4886L97.7514 23.2696C97.3219 23.0653 96.7765 23.0677 96.3476 23.276C96.2896 23.3042 96.2353 23.3346 96.1833 23.368L96.1192 23.407L78.2842 33.4002L78.215 33.4309C78.1259 33.4702 78.0361 33.5208 77.9514 33.5791C77.6132 33.8134 77.3886 34.1604 77.316 34.549C77.3052 34.6079 77.297 34.668 77.2935 34.7288L77.3214 51.2689L86.8275 37.0226C88.0242 35.1337 90.6319 34.5248 93.0527 34.5582L95.8936 34.6306L79.1538 60.5886L81.127 61.687L98.0674 34.657L105.555 34.6306L88.6586 62.3429L95.6998 66.2591L96.5411 66.7266C96.8971 66.8665 97.3165 66.8735 97.6753 66.7481L116.307 56.3076L112.745 58.3036L102.893 42.8969ZM104.338 63.015L97.2261 52.222L101.568 45.0987L110.907 59.3334L104.338 63.015Z" fill="#2D374B"/>
<path d="M97.2258 52.2223L104.338 63.015L110.907 59.3337L101.567 45.099L97.2258 52.2223Z" fill="#28A0F0"/>
<path d="M116.89 55.0043L116.885 52.0546L106.68 36.6849L102.893 42.8972L112.746 58.304L116.308 56.3079C116.657 56.0337 116.869 55.6309 116.891 55.1966L116.89 55.0043Z" fill="#28A0F0"/>
<path d="M74.1233 57.7859L79.1538 60.5886L95.8937 34.6307L93.0528 34.5583C90.6322 34.5251 88.0245 35.1337 86.8275 37.0227L77.3214 51.269L74.1233 56.0202V57.7859Z" fill="white"/>
<path d="M105.555 34.6306L98.0673 34.657L81.127 61.6871L87.0483 64.9834L88.6583 62.3429L105.555 34.6306Z" fill="white"/>
<path d="M120.045 34.5932C119.983 33.0791 119.135 31.6932 117.807 30.8862L99.192 20.5352C97.8783 19.8957 96.2372 19.8947 94.921 20.5349C94.7656 20.6107 76.8186 30.6751 76.8186 30.6751C76.5702 30.7901 76.331 30.9273 76.106 31.0831C74.9205 31.9049 74.1978 33.1816 74.1233 34.584V56.0205L77.3214 51.2693L77.2935 34.7288C77.2973 34.6684 77.3052 34.6086 77.316 34.55C77.3883 34.1607 77.6133 33.8138 77.9514 33.5791C78.0361 33.5208 96.2893 23.3043 96.3473 23.276C96.7765 23.0678 97.3216 23.0653 97.7511 23.2696L116.125 33.4886C116.56 33.7564 116.832 34.2104 116.856 34.7067V55.196C116.834 55.6303 116.656 56.0331 116.307 56.3073L112.745 58.3033L110.907 59.3334L104.337 63.0147L97.675 66.7478C97.3162 66.8733 96.8965 66.8662 96.5408 66.7263L88.6583 62.3426L87.048 64.9831L94.132 68.9267C94.3661 69.0555 94.5749 69.1696 94.7462 69.2628C95.0114 69.4067 95.1922 69.5027 95.256 69.5328C95.7595 69.7693 96.4837 69.9067 97.1366 69.9067C97.7349 69.9067 98.3187 69.8006 98.871 69.5914L118.222 58.7555C119.333 57.9233 119.987 56.6684 120.045 55.3092V34.5932Z" fill="#96BEDC"/>
</g>
<defs>
<linearGradient id="paint0_linear_5043_60907" x1="166.044" y1="82.2992" x2="28.0741" y2="82.2992" gradientUnits="userSpaceOnUse">
<stop stop-color="#FAF1E7"/>
<stop offset="0.26021" stop-color="#FDCEAA"/>
<stop offset="0.61201" stop-color="#F4837D"/>
<stop offset="0.9999" stop-color="#B9AAFD"/>
</linearGradient>
<clipPath id="clip0_5043_60907">
<rect width="46" height="50" fill="white" transform="translate(74.1233 20.0552)"/>
</clipPath>
</defs>
</svg>

<svg fill="none" height="194" width="194" xmlns="http://www.w3.org/2000/svg"><linearGradient id="a" gradientUnits="userSpaceOnUse" x1="166.044" x2="28.074" y1="82.299" y2="82.299"><stop offset="0" stop-color="#faf1e7"/><stop offset=".26" stop-color="#fdceaa"/><stop offset=".612" stop-color="#f4837d"/><stop offset="1" stop-color="#b9aafd"/></linearGradient><clipPath id="b"><path d="M0 0h46v50H0z" transform="translate(74.123 20.055)"/></clipPath><circle cx="97" cy="97" fill="#faf1e7" r="97"/><path d="M154.547 119.309L97.06 62.162l-57.488 57.147 28.744 28.573 28.744-28.573 28.743 28.573z" fill="#fff"/><g stroke="#1f2333" stroke-linejoin="round" stroke-width="1.713"><path d="M97.06 119.308l28.743 28.577 5.749-14.151-34.493-34.288v19.862z" fill="#faf1e7"/><path d="M154.551 119.302l-28.747 28.574 5.749-14.142 34.492-34.288zm-57.49.006l-28.745 28.577-5.749-14.151L97.06 99.446v19.862z" fill="#1f2333"/><path d="M39.568 119.302l28.748 28.574-5.75-14.142-34.492-34.288z" fill="#faf1e7"/><path d="M166.045 99.444L97.059 30.868 28.074 99.444l34.493 34.288L97.06 99.444l34.492 34.288z" fill="url(#a)"/></g><circle cx="97.029" cy="45.029" fill="#fff" r="36.029"/><g clip-path="url(#b)"><path d="M102.893 42.897l3.787-6.212 10.205 15.37.005 2.949-.033-20.297a1.52 1.52 0 0 0-.732-1.218l-18.374-10.22a1.67 1.67 0 0 0-1.403.007 1.584 1.584 0 0 0-.165.092l-.064.039L78.284 33.4l-.069.03c-.09.04-.179.09-.264.15a1.518 1.518 0 0 0-.657 1.149l.027 16.54 9.507-14.246c1.196-1.89 3.804-2.498 6.225-2.465l2.84.073-16.74 25.958 1.974 1.098 16.94-27.03 7.488-.026-16.896 27.712 7.04 3.916.842.468c.356.14.776.147 1.134.021l18.632-10.44-3.562 1.996zm1.445 20.118l-7.112-10.793 4.342-7.123 9.339 14.234z" fill="#2d374b"/><path d="M97.226 52.222l7.112 10.793 6.569-3.681-9.34-14.235zm19.664 2.782l-.005-2.95-10.205-15.37-3.787 6.213 9.853 15.407 3.562-1.996a1.51 1.51 0 0 0 .583-1.111z" fill="#28a0f0"/><path d="M74.123 57.786l5.03 2.803 16.74-25.958-2.84-.073c-2.42-.033-5.028.576-6.225 2.465L77.32 51.269l-3.198 4.751v1.766zm31.432-23.155l-7.488.026-16.94 27.03 5.921 3.296 1.61-2.64z" fill="#fff"/><path d="M120.045 34.593c-.062-1.514-.91-2.9-2.238-3.707l-18.615-10.35a4.991 4.991 0 0 0-4.271-.001c-.155.076-18.102 10.14-18.102 10.14a4.787 4.787 0 0 0-.713.408c-1.185.822-1.908 2.099-1.983 3.501V56.02l3.198-4.75-.028-16.541a1.511 1.511 0 0 1 .658-1.15c.085-.058 18.338-10.275 18.396-10.303a1.67 1.67 0 0 1 1.404-.006l18.374 10.219c.435.267.707.721.731 1.218v20.489c-.022.434-.2.837-.549 1.111l-3.562 1.996-1.838 1.03-6.57 3.682-6.662 3.733a1.666 1.666 0 0 1-1.134-.022l-7.883-4.383-1.61 2.64 7.084 3.944.614.336c.265.144.446.24.51.27.504.236 1.228.374 1.88.374a4.88 4.88 0 0 0 1.735-.316l19.351-10.835a4.525 4.525 0 0 0 1.823-3.447z" fill="#96bedc"/></g></svg>
